static/VSMD23.svg

<?xml version="1.0" encoding="UTF-8" standalone="no"?>
<svg
   width="587.59418"
   height="302.94998"
   xml:space="preserve"
   overflow="hidden"
   version="1.1"
   id="svg23"
   sodipodi:docname="VSMD23.svg"
   viewBox="0 0 1958.6473 1009.8333"
   inkscape:version="1.2.2 (b0a8486541, 2022-12-01)"
   xmlns:inkscape="http://www.inkscape.org/namespaces/inkscape"
   xmlns:sodipodi="http://sodipodi.sourceforge.net/DTD/sodipodi-0.dtd"
   xmlns="http://www.w3.org/2000/svg"
   xmlns:svg="http://www.w3.org/2000/svg"><sodipodi:namedview
     id="namedview25"
     pagecolor="#ffffff"
     bordercolor="#000000"
     borderopacity="0.25"
     inkscape:showpageshadow="2"
     inkscape:pageopacity="0.0"
     inkscape:pagecheckerboard="0"
     inkscape:deskcolor="#d1d1d1"
     showgrid="false"
     inkscape:zoom="0.67485822"
     inkscape:cx="1058"
     inkscape:cy="569.0084"
     inkscape:window-width="1920"
     inkscape:window-height="1052"
     inkscape:window-x="0"
     inkscape:window-y="0"
     inkscape:window-maximized="1"
     inkscape:current-layer="svg23" /><defs
     id="defs5"><clipPath
       id="clip0"><rect
         x="1259"
         y="737"
         width="2116"
         height="1138"
         id="rect2" /></clipPath></defs><g
     clip-path="url(#clip0)"
     transform="translate(-1259.0833,-737.08335)"
     id="g21"><text
       font-family="Arial, Arial_MSFontService, sans-serif"
       font-weight="700"
       font-size="248px"
       transform="translate(2950.84,1233)"
       id="text7">23</text><path
       d="m 1941,868.5 c 0,-59.923 48.35,-108.5 108,-108.5 59.65,0 108,48.577 108,108.5 0,59.923 -48.35,108.5 -108,108.5 -59.65,0 -108,-48.577 -108,-108.5 z"
       stroke="#2f528f"
       stroke-width="45.8333"
       stroke-miterlimit="8"
       fill="none"
       fill-rule="evenodd"
       id="path9" /><path
       d="m 1425,1401.5 c 0,-119.57 96.93,-216.5 216.5,-216.5 119.57,0 216.5,96.93 216.5,216.5 0,119.57 -96.93,216.5 -216.5,216.5 -119.57,0 -216.5,-96.93 -216.5,-216.5 z"
       stroke="#00b050"
       stroke-width="45.8333"
       stroke-miterlimit="8"
       fill="none"
       fill-rule="evenodd"
       id="path11" /><path
       d="m 1864,1573.5 c 0,-83.12 67.61,-150.5 151,-150.5 83.4,0 151,67.38 151,150.5 0,83.12 -67.6,150.5 -151,150.5 -83.39,0 -151,-67.38 -151,-150.5 z"
       stroke="#2f528f"
       stroke-width="45.8333"
       stroke-miterlimit="8"
       fill="#ffffff"
       fill-rule="evenodd"
       id="path13" /><path
       d="m 1282,987.5 c 0,-105.21 85.07,-190.5 190,-190.5 104.93,0 190,85.29 190,190.5 0,105.21 -85.07,190.5 -190,190.5 -104.93,0 -190,-85.29 -190,-190.5 z"
       stroke="#00b050"
       stroke-width="45.8333"
       stroke-miterlimit="8"
       fill="#ffffff"
       fill-rule="evenodd"
       id="path15" /><text
       font-family="Arial, Arial_MSFontService, sans-serif"
       font-weight="700"
       font-size="440px"
       transform="translate(1825.05,1510)"
       id="text17">VSMD</text><path
       d="m 1697,1053 c 0,-74.558 60.44,-135 135,-135 74.56,0 135,60.442 135,135 0,74.56 -60.44,135 -135,135 -74.56,0 -135,-60.44 -135,-135 z"
       stroke="#ff0000"
       stroke-width="45.8333"
       stroke-miterlimit="8"
       fill="#ffffff"
       fill-rule="evenodd"
       id="path19" /></g></svg>

<svg width="2116" height="1138" xmlns="http://www.w3.org/2000/svg" xmlns:xlink="http://www.w3.org/1999/xlink" xml:space="preserve" overflow="hidden"><defs><clipPath id="clip0"><rect x="1259" y="737" width="2116" height="1138"/></clipPath></defs><g clip-path="url(#clip0)" transform="translate(-1259 -737)"><text font-family="Arial,Arial_MSFontService,sans-serif" font-weight="700" font-size="248" transform="matrix(1 0 0 1 2950.84 1233)">23</text><path d="M1941 868.5C1941 808.577 1989.35 760 2049 760 2108.65 760 2157 808.577 2157 868.5 2157 928.423 2108.65 977 2049 977 1989.35 977 1941 928.423 1941 868.5Z" stroke="#2F528F" stroke-width="45.8333" stroke-miterlimit="8" fill="none" fill-rule="evenodd"/><path d="M1425 1401.5C1425 1281.93 1521.93 1185 1641.5 1185 1761.07 1185 1858 1281.93 1858 1401.5 1858 1521.07 1761.07 1618 1641.5 1618 1521.93 1618 1425 1521.07 1425 1401.5Z" stroke="#00B050" stroke-width="45.8333" stroke-miterlimit="8" fill="none" fill-rule="evenodd"/><path d="M1864 1573.5C1864 1490.38 1931.61 1423 2015 1423 2098.4 1423 2166 1490.38 2166 1573.5 2166 1656.62 2098.4 1724 2015 1724 1931.61 1724 1864 1656.62 1864 1573.5Z" stroke="#2F528F" stroke-width="45.8333" stroke-miterlimit="8" fill="#FFFFFF" fill-rule="evenodd"/><path d="M1282 987.5C1282 882.29 1367.07 797 1472 797 1576.93 797 1662 882.29 1662 987.5 1662 1092.71 1576.93 1178 1472 1178 1367.07 1178 1282 1092.71 1282 987.5Z" stroke="#00B050" stroke-width="45.8333" stroke-miterlimit="8" fill="#FFFFFF" fill-rule="evenodd"/><text font-family="Arial,Arial_MSFontService,sans-serif" font-weight="700" font-size="440" transform="matrix(1 0 0 1 1825.05 1510)">VSMD</text><path d="M1697 1053C1697 978.442 1757.44 918 1832 918 1906.56 918 1967 978.442 1967 1053 1967 1127.56 1906.56 1188 1832 1188 1757.44 1188 1697 1127.56 1697 1053Z" stroke="#FF0000" stroke-width="45.8333" stroke-miterlimit="8" fill="#FFFFFF" fill-rule="evenodd"/></g></svg>
